icons-rebrand/svg/closed-captions-filled.svg

<svg width="32" height="32" viewBox="0 0 32 32" fill="none" xmlns="http://www.w3.org/2000/svg">
<path fill-rule="evenodd" clip-rule="evenodd" d="M7 6.00098H25C26.3256 6.00256 27.5964 6.52986 28.5338 7.4672C29.4711 8.40453 29.9984 9.67538 30 11.001V21.001C29.9984 22.3266 29.4711 23.5974 28.5338 24.5348C27.5964 25.4721 26.3256 25.9994 25 26.001H11.675C11.338 26.215 11.022 26.461 10.731 26.736C10.457 26.976 10.191 27.206 9.958 27.372C8.57352 28.4182 6.88829 28.9895 5.153 29.001C4.42478 29.021 3.70076 28.8842 3.03 28.6C2.74515 28.497 2.49649 28.3132 2.31445 28.0712C2.13241 27.8291 2.02487 27.5392 2.005 27.237C2.00753 26.9378 2.09709 26.6458 2.26277 26.3967C2.42845 26.1475 2.66307 25.952 2.938 25.834C3.32971 25.6094 3.67029 25.3056 3.938 24.942C3.33744 24.4749 2.85091 23.8774 2.51517 23.1947C2.17943 22.5119 2.00327 21.7618 2 21.001V11.001C2.00159 9.67538 2.52888 8.40453 3.46622 7.4672C4.40356 6.52986 5.67441 6.00256 7 6.00098ZM19.172 18.338C19.362 18.425 19.568 18.468 19.776 18.461C20.748 18.461 21.272 17.921 21.346 16.841H23.056C23.0302 17.262 22.9174 17.6732 22.7246 18.0484C22.5318 18.4237 22.2633 18.7548 21.936 19.021C21.2933 19.4614 20.5242 19.6795 19.746 19.642C19.2737 19.6669 18.802 19.5834 18.3669 19.398C17.9319 19.2125 17.545 18.93 17.236 18.572C16.6416 17.8017 16.3435 16.8435 16.396 15.872C16.3571 15.3419 16.4306 14.8096 16.6115 14.3099C16.7924 13.8102 17.0768 13.3543 17.446 12.972C18.101 12.396 18.9549 12.0983 19.826 12.142C20.634 12.107 21.426 12.366 22.056 12.872C22.577 13.327 22.915 13.956 23.006 14.642H21.326C21.2971 14.2691 21.1245 13.9221 20.8447 13.674C20.5648 13.4259 20.1996 13.2961 19.826 13.312C19.5716 13.3007 19.3189 13.359 19.0952 13.4806C18.8714 13.6021 18.685 13.7824 18.556 14.002C18.2492 14.5755 18.1073 15.2227 18.146 15.872C18.086 16.609 18.276 17.345 18.686 17.962C18.817 18.122 18.983 18.252 19.172 18.338ZM11.778 18.338C11.967 18.425 12.173 18.468 12.381 18.461C13.354 18.461 13.877 17.921 13.951 16.841H15.661C15.6352 17.262 15.5224 17.6732 15.3296 18.0484C15.1368 18.4237 14.8683 18.7548 14.541 19.021C13.8982 19.4612 13.1292 19.6793 12.351 19.642C11.8787 19.6668 11.4071 19.5832 10.972 19.3978C10.537 19.2123 10.1501 18.9299 9.841 18.572C9.24707 17.8014 8.94905 16.8435 9.001 15.872C8.96207 15.3419 9.03547 14.8096 9.21641 14.3099C9.39735 13.8102 9.68175 13.3542 10.051 12.972C10.706 12.3959 11.5599 12.0981 12.431 12.142C13.238 12.106 14.031 12.366 14.661 12.872C15.182 13.326 15.52 13.956 15.611 14.642H13.931C13.9023 14.269 13.7298 13.9218 13.4499 13.6737C13.17 13.4255 12.8047 13.2958 12.431 13.312C12.1766 13.301 11.9241 13.3595 11.7004 13.481C11.4767 13.6025 11.2902 13.7826 11.161 14.002C10.8543 14.5755 10.7124 15.2227 10.751 15.872C10.69 16.609 10.881 17.346 11.291 17.962C11.422 18.122 11.589 18.252 11.778 18.339V18.338Z" fill="#0F0F0F"/>
</svg>

<svg id="Layer_1" data-name="Layer 1" xmlns="http://www.w3.org/2000/svg" viewBox="0 0 32 32"><defs><style>.cls-1{fill:#0f0f0f;fill-rule:evenodd;}</style></defs><path class="cls-1" d="M28.534,7.467A5.01,5.01,0,0,0,25,6H7a5.005,5.005,0,0,0-5,5V21a5.017,5.017,0,0,0,1.938,3.941,3.248,3.248,0,0,1-1,.892,1.543,1.543,0,0,0-.933,1.4A1.557,1.557,0,0,0,3.03,28.6a5.089,5.089,0,0,0,2.123.4,8.056,8.056,0,0,0,4.805-1.629c.233-.166.5-.4.773-.636A6.26,6.26,0,0,1,11.675,26H25a5.005,5.005,0,0,0,5-5V11A5.01,5.01,0,0,0,28.534,7.467ZM15.33,18.048a3.05,3.05,0,0,1-.789.973,3.577,3.577,0,0,1-2.19.621,3.1,3.1,0,0,1-2.51-1.07,4.066,4.066,0,0,1-.84-2.7,3.772,3.772,0,0,1,1.05-2.9,3.349,3.349,0,0,1,2.38-.83,3.326,3.326,0,0,1,2.23.73,2.845,2.845,0,0,1,.95,1.77h-1.68a1.442,1.442,0,0,0-1.5-1.33,1.4,1.4,0,0,0-1.27.69,3.517,3.517,0,0,0-.41,1.87,3.285,3.285,0,0,0,.54,2.09,1.374,1.374,0,0,0,.487.377h0a1.334,1.334,0,0,0,.6.123q1.459,0,1.57-1.62h1.71A3.063,3.063,0,0,1,15.33,18.048Zm7.4,0a3.05,3.05,0,0,1-.789.973,3.571,3.571,0,0,1-2.19.621,3.1,3.1,0,0,1-2.51-1.07,4.065,4.065,0,0,1-.84-2.7,3.782,3.782,0,0,1,1.05-2.9,3.349,3.349,0,0,1,2.38-.83,3.329,3.329,0,0,1,2.23.73,2.847,2.847,0,0,1,.95,1.77h-1.68a1.442,1.442,0,0,0-1.5-1.33,1.4,1.4,0,0,0-1.27.69,3.517,3.517,0,0,0-.41,1.87,3.293,3.293,0,0,0,.54,2.09,1.356,1.356,0,0,0,.486.376,1.341,1.341,0,0,0,.6.123q1.458,0,1.57-1.62h1.71A3.063,3.063,0,0,1,22.725,18.048Z"/></svg>
